packages/symbols/svgs/outline/compass-outline.svg

<svg width="24" height="24" viewBox="0 0 24 24" fill="none" xmlns="http://www.w3.org/2000/svg">
<g clip-path="url(#clip0_1150_5562)">
<path fill-rule="evenodd" clip-rule="evenodd" d="M12 2C6.47715 2 2 6.47715 2 12C2 17.5228 6.47715 22 12 22C17.5228 22 22 17.5228 22 12C22 6.47715 17.5228 2 12 2ZM0 12C0 5.37258 5.37258 0 12 0C18.6274 0 24 5.37258 24 12C24 18.6274 18.6274 24 12 24C5.37258 24 0 18.6274 0 12Z" fill="black"/>
<path fill-rule="evenodd" clip-rule="evenodd" d="M17.9192 7.39392C18.0802 7.01808 17.9963 6.58203 17.7071 6.29289C17.418 6.00375 16.982 5.91978 16.6061 6.08085L9.60611 9.08085C9.3701 9.182 9.18203 9.37006 9.08088 9.60608L6.08088 16.6061C5.91981 16.9819 6.00378 17.418 6.29292 17.7071C6.58206 17.9962 7.01811 18.0802 7.39395 17.9191L14.3939 14.9191C14.63 14.818 14.818 14.6299 14.9192 14.3939L17.9192 7.39392ZM10.7616 10.7616L8.90397 15.0961L13.2384 13.2384L10.7616 10.7616Z" fill="black"/>
</g>
<defs>
<clipPath id="clip0_1150_5562">
<rect width="24" height="24" fill="white"/>
</clipPath>
</defs>
</svg>

<svg width="24" height="24" viewBox="0 0 24 24" xmlns="http://www.w3.org/2000/svg"><g clip-path="url(#a)" fill-rule="evenodd" clip-rule="evenodd"><path d="M12 2C6.477 2 2 6.477 2 12s4.477 10 10 10 10-4.477 10-10S17.523 2 12 2ZM0 12C0 5.373 5.373 0 12 0s12 5.373 12 12-5.373 12-12 12S0 18.627 0 12Z"/><path d="M17.92 7.394a1 1 0 0 0-1.314-1.313l-7 3a1 1 0 0 0-.525.525l-3 7a1 1 0 0 0 1.313 1.313l7-3a1 1 0 0 0 .525-.525l3-7Zm-7.158 3.368-1.858 4.334 4.334-1.858-2.476-2.476Z"/></g><defs><clipPath id="a"><path fill="#fff" d="M0 0h24v24H0z"/></clipPath></defs></svg>
